X:1
T:Title
%%score { ( 1 4 ) | ( 2 3 ) }
L:1/8
Q:1/4=100
M:4/4
K:Bb
V:1 treble nm="Grand Piano"
V:4 treble 
V:2 bass 
V:3 bass 
V:1
 [DF]2 [DF]2 [DF]3 [B,D] | [DB]2 [DB]2 .[DB]2 z2 | [Fd]2 [Ff][Ge] [Fd]2 [Ec]2 | %3
w: A.~Ward * * *|||
 [DB]4 [DB]2 [Bdfb]2 | [DF]2 [DF]2 [DF]3 [B,D] | [DB]2 [DB]2 [DB]2 [DF]2 | %6
w: |||
 [Fd]2 [Fd]2 [Fd][Ec][DB][EG] | [DF]2 [_D=E]2 [=DF]2 [DB][DB] | [EA]2 [EA]2 [EA]2 [Fc]2 | %9
w: |||
 [FB]2 [FB]2 [FB]2 [Fd]2 | [=EG]4 [Ec]4 | c6 z2 | e2 e2 edce | [Ad]2 [cd]2 [Bd]cBd | %14
w: |||||
 c2 c2 d2 [B=e]2 | [Af]8 | [Ff]2 [Fd]2 [Fe]2 [Fc]2 | [Ff]2 [Fd]2 [DB]2 [Ge]2 | z4 c2 c2 | %19
w: |||||
 B4 (3z FG (3ABc | [Fd]2 [Fd]6 | [DFB]2 [FB]4 [D_AB]2 | [Ge]3 [Ge] [GB]2 [^Fc]2 | [Fd]6 z2 | %24
w: |||||
 [=EBd]2 [EBc]6 | [FAd]2 [FAc]6 | [=EBc]2 [Bc]2 [Bd]2 [B=e]2 | [Af]2 [Af]2 f2 e2 | [Fd]2 [Fd]6 | %29
w: |||||
 [DFB]2 [FB]4 [D_AB]2 | [Ge]3 [Ge] [GB]2 [^Fc]2 | [Fd]6 z2 | [Ff]2 [Fd]>[Fd] [Fe]2 [Fc]2 | %33
w: ||||
 [Ff]2 [Fd]2 [DB]2 [Ge]2 | z4 c2 c2 | [DB]6 z2 |] %36
w: |||
V:2
 [B,,B,]2 [B,,B,]2 [B,,B,]3 [B,,F,] | [B,,F,]2 [B,,F,]2 (3B,,[K:treble]FG (3ABc | %2
 B,,C,D,E, F,^F,G,A, | B,G,F,D, .[B,,F,]2 .[B,,B,]2 | [B,,B,]2 [B,,B,]2 [B,,B,]3 [B,,F,] | %5
 [B,,F,]2 [B,,F,]2 [B,,F,]2 [B,,B,]2 | [B,,B,]2 [B,,B,]2 [B,,B,]2 [B,,B,]2 | %7
 [B,,B,]2 [B,,B,]2 [B,,B,]2 [B,,B,][B,,B,] | [C,F,]2 [C,F,]2 [F,C]2 [E,A,]2 | %9
 [D,B,]2 [D,B,]2 [D,B,]2 [B,,B,]2 | [C,B,]4 [C,B,]4 | [F,A,F]6 z2 | %12
 [F,CF]2 [F,CF]2 [F,F]-[F,B,F]A,C | [^F,C]2 [F,D]2[K:treble] D-[A,DA][B,G][=B,_A] | %14
 [CFA]2 [CFA]2 [C=EB]2[K:bass] [C,C]2 | C8 | [D,B,]2 [B,,B,]2 [C,A,]2 [E,A,]2 | %17
 [D,B,]2 [B,,B,]2 [G,B,]2 [E,B,]2 | [F,B,F]3 [F,B,F] .[F,B,E]2 .[F,G,E]2 | z4[K:treble] B2 z2 | %20
 [B,,B,]2 F,2 G,>A, B,>C | B,,2 z _D =D2 B,2 | [E,B,]3 [E,B,] [E,B,]2 [E,B,]2 | %23
 B,2- [D,B,-]>[F,B,] B,2 B,,2 | C,2 C,2 =E,>C, D,>E, | F,2 F,2 A,>F, A,>B, | %26
 C2 [B,=E]2 [A,E]2 [G,C]2 | [F,C]2 [E,C]2 [D,B,]2 [C,A,]2 | [B,,B,]2 F,2 G,>A, B,>C | %29
 B,,2 z z/ _D/ =D2 B,2 | [E,B,]3 [E,B,] [E,B,]2 [E,B,]2 | B,->[C,B,-] [D,B,-]>[F,B,] B,2 z2 | %32
 [D,B,]2 [B,,B,]>[B,,B,] [C,A,]2 [E,A,]2 | [D,B,]2 [B,,B,]2 [G,B,]2 [E,B,]2 | %34
 [F,B,F]3 [F,B,F] .[F,B,E]2 .[F,G,E]2 | [B,,B,]6 z2 |] %36
V:3
 x8 | z4 .F,2[K:treble] z2 | x8 | x8 | x8 | x8 | x8 | x8 | x8 | x8 | x8 | x8 | z4 .C2 [F,F]2 | %13
 z4[K:treble] .G,2 D2 | x6[K:bass] x2 | F,6 z2 | x8 | x8 | x8 | B,,6[K:treble] z2 | z2 B,,6 | %21
 z2 B,,4 z2 | x8 | B,,2 z2 z4 | x8 | x8 | x8 | x8 | z2 B,,6 | z2 B,,4 z2 | x8 | B,,2 z2 z4 | x8 | %33
 x8 | x8 | x8 |] %36
V:4
 x8 | x8 | x8 | x8 | x8 | x8 | x8 | x8 | x8 | x8 | x8 | x8 | x8 | x8 | x8 | z4 z2 E,2 | x8 | x8 | %18
 d3 d z A, z A, | [B,D]6 z2 | x8 | z2 .D2 z4 | x8 | x8 | x8 | x8 | x8 | z4 F4 | x8 | z2 D2 z4 | %30
 x8 | x8 | x8 | x8 | d3 d z A, z A, | x8 |] %36

